X:1
T:Laird o' Drumblair, The
M:C
L:1/8
R:Strathspey
N:"(Play with) Fire and force"
C:J. Scott Skinner
B:Harp and Claymore Collection
Z:AK/Fiddler's Companion
S:http://tunearch.org/wiki/Laird_o%27_Drumblair_Strathspey_(The) 2017-7-24
K:A
E |\
{G}[A2A2] c>A [AE]<A c>A | {A}a2 g>a f>ae>c | (3.d.e.f (3.e.f.g (3.a.e.d (3.c.B.A |
(3.B.c.d (3.c.B.A (3.G.F.E (3.d.c.B | {G}[A2A2] c>A E<A c>A | {A}a2 g>a f>ae>c |
(3.d.e.f (3.e.f.g (3.a.e.d (3.c.B.A | (3GFE (3dcB {G}[A2A2] A || g | {g}a2 e>a c>aA>a |
c/B/A e>g a>A ca | {^a}b2 f>b d>fB>f | d/c/B f>B {^a}b>B d<b | {g}a2 e<a c>>a A>>a |
c/B/A e>g a>Ac>A | (3.d.e.f (3.e.f.g (3.a.e.d (3.c.B.A | GFE dcB {G}[A2A2A,2] [A,EA] |]
"Last"| GFE DCB, (A,2 A,) || [E8A8] |]
